SVG/trash.svg

<?xml version="1.0" encoding="utf-8"?>
<!-- Generated by IcoMoon.io -->
<!DOCTYPE svg PUBLIC "-//W3C//DTD SVG 1.1//EN" "http://www.w3.org/Graphics/SVG/1.1/DTD/svg11.dtd">
<svg version="1.1" xmlns="http://www.w3.org/2000/svg" xmlns:xlink="http://www.w3.org/1999/xlink" width="11" height="14" viewBox="0 0 11 14">
<path fill="#444444" d="M4 10.75v-5.5q0-0.109-0.070-0.18t-0.18-0.070h-0.5q-0.109 0-0.18 0.070t-0.070 0.18v5.5q0 0.109 0.070 0.18t0.18 0.070h0.5q0.109 0 0.18-0.070t0.070-0.18zM6 10.75v-5.5q0-0.109-0.070-0.18t-0.18-0.070h-0.5q-0.109 0-0.18 0.070t-0.070 0.18v5.5q0 0.109 0.070 0.18t0.18 0.070h0.5q0.109 0 0.18-0.070t0.070-0.18zM8 10.75v-5.5q0-0.109-0.070-0.18t-0.18-0.070h-0.5q-0.109 0-0.18 0.070t-0.070 0.18v5.5q0 0.109 0.070 0.18t0.18 0.070h0.5q0.109 0 0.18-0.070t0.070-0.18zM3.75 3h3.5l-0.375-0.914q-0.055-0.070-0.133-0.086h-2.477q-0.078 0.016-0.133 0.086zM11 3.25v0.5q0 0.109-0.070 0.18t-0.18 0.070h-0.75v7.406q0 0.648-0.367 1.121t-0.883 0.473h-6.5q-0.516 0-0.883-0.457t-0.367-1.105v-7.438h-0.75q-0.109 0-0.18-0.070t-0.070-0.18v-0.5q0-0.109 0.070-0.18t0.18-0.070h2.414l0.547-1.305q0.117-0.289 0.422-0.492t0.617-0.203h2.5q0.312 0 0.617 0.203t0.422 0.492l0.547 1.305h2.414q0.109 0 0.18 0.070t0.070 0.18z"></path>
</svg>

<svg xmlns="http://www.w3.org/2000/svg" viewBox="0 0 11 14"><path d="M4 10.75v-5.5q0-.11-.07-.18T3.75 5h-.5q-.11 0-.18.07T3 5.25v5.5q0 .11.07.18t.18.07h.5q.11 0 .18-.07t.07-.18zm2 0v-5.5q0-.11-.07-.18T5.75 5h-.5q-.11 0-.18.07T5 5.25v5.5q0 .11.07.18t.18.07h.5q.11 0 .18-.07t.07-.18zm2 0v-5.5q0-.11-.07-.18T7.75 5h-.5q-.11 0-.18.07T7 5.25v5.5q0 .11.07.18t.18.07h.5q.11 0 .18-.07t.07-.18zM3.75 3h3.5l-.375-.914Q6.82 2.016 6.742 2H4.265q-.078.016-.133.086zm7.25.25v.5q0 .11-.07.18t-.18.07H10v7.406q0 .648-.367 1.12T8.75 13h-6.5q-.516 0-.883-.457T1 11.438V4H.25q-.11 0-.18-.07T0 3.75v-.5q0-.11.07-.18T.25 3h2.414l.547-1.305q.12-.29.425-.492T4.25 1h2.5q.312 0 .617.203t.422.492L8.333 3h2.414q.11 0 .18.07t.07.18z" /></svg>
